!!!!SEGMENT: pl-kk--kk-i-178--002_anonim--gloriosi-principes-terrae.krn
!!!cenid: 17xx:2605
!!!COM: Anonim
!!!COM-rismID: pe30004985
!!!CDT:
!!!CNT:
!!!OTL: Gloriosi principes terrae
!!!PDT:
!!!AGN: Sacred
!!!YEC: Copyright 2022 Narodowy Instytut Fryderyka Chopina (https://polishscores.org)
!!!YEM: License CC-BY-4.0 (https://creativecommons.org/licenses/by/4.0)
!!!SMS-siglum: PL-Kk
!!!SMS-shelfmark: Kk.I.178
!!!SMS-variant:
!!!SMS-altvar:
!!!SMS-shelfwork: 002 W
!!!NIFC-rismSourceID: 1001151871
!!!NIFC-rismChildID: 1001151873
!!!NIFC-islandoraID: pl-kk:3862
!!!URL-pdf-islandora: https://repozytorium.nifc.pl/islandora/object/pl-kk:3862/datastream/PDF/view
!!!URL-scan: https://polish.musicsources.pl/pl/lokalizacje/galeria/rekopisy/5806/1 @EN{Scan on Polish Music Sources Website} @PL{Skany w portalu Dziedzictwo Muzyki Polskiej w otwartym dostępie}
!!!IIIF:
!!!ONB-nifc:
!!!AIN: 1 alto 1 bass 1 soprn 1 tenor
!!!key: F
**kern	**text	**kern	**text	**kern	**text	**kern	**text	**kern	**text
*part5	*part5	*part4	*part4	*part3	*part3	*part2	*part2	*part1	*part1
*staff5	*staff5	*staff4	*staff4	*staff3	*staff3	*staff2	*staff2	*staff1	*staff1
*IGripn	*	*	*	*	*	*	*	*	*
*	*	*ICvox	*	*ICvox	*	*ICvox	*	*ICvox	*
*	*	*Ibass	*	*Itenor	*	*Ialto	*	*Isoprn	*
*I"Baſso Ripieno.	*	*I"Baſso.	*	*I"Tenore in Chorali	*	*I"Alto.	*	*I"Canto in Tenorè	*
*I'B rip	*	*I'B	*	*I'T	*	*I'A	*	*I'S	*
*clefF4	*	*clefF4	*	*clefC4	*	*clefC3	*	*clefC4	*
*k[b-]	*	*k[b-]	*	*k[b-]	*	*k[b-]	*	*k[b-]	*
*F:	*	*F:	*	*F:	*	*F:	*	*F:	*
*M2/2	*	*M2/2	*	*M2/2	*	*M2/2	*	*M2/2	*
*met(c|)	*	*met(c|)	*	*met(c|)	*	*met(c|)	*	*met(c|)	*
*	*	*	*	*lig	*	*	*	*	*
=1	=1	=1	=1	=1	=1	=1	=1	=1	=1
!!LO:TX:t=P:problem:oddech/cezura na różnej wysokości
!LO:TX:t=P:problem:znaki: B- nad BB-	!	!LO:TX:t=P:problem:znaki: B- nad BB-	!	!	!	!	!	!	!
!LO:TX:t=F.	!	!	!	!	!	!	!	!	!
1r	.	1r	.	1F	Glo-	1.f	Glo-	1r	.
=2	=2	=2	=2	=2-	=2	=2-	=2	=2	=2
1C	Glo-	1C	Glo-	1G	.	.	.	[y1c	Glo-
*	*	*	*	*	*	*2\right	*	*	*
.	.	.	.	.	.	2e\	-ri-	.	.
*	*	*	*	*Xlig	*	*	*	*	*
=3	=3	=3	=3	=3-	=3	=3	=3	=3-	=3
!	!	!	!	!	!	!	!	!LO:N:xstem:cue:vis=4	!
1D	.	1D	.	1F	-ri-	(4f\	-o-	2c\]	.
.	.	.	.	.	.	4e\	.	.	.
*	*	*	*	*	*	*	*	*2\right	*
.	.	.	.	.	.	4d\	.	2B-X\	-ri-
.	.	.	.	.	.	4f\)	.	.	.
=4	=4	=4	=4	=4-	=4	=4	=4	=4	=4
*	*	*	*	*lig	*	*	*	*	*
2C/	ri-	2C/	.	1G	-o-	(4e-X\	.	2B-\	-o-
.	.	.	.	.	.	4d\	.	.	.
2C/	-o-	2C/	-ri-	.	.	4c\	.	2A\	.
.	.	.	.	.	.	4e-\)	.	.	.
=5	=5	=5	=5	=5-	=5	=5	=5	=5	=5
2BB-/	-si	2BB-X/	-o-	1B-	.	2d\	.	1B-,	-si
2BB-,/	.	2BB-,/	-si	.	.	2d\	-si	.	.
*2\right	*	*2\right	*	*Xlig	*	*	*	*	*
=6	=6	=6	=6	=6-	=6	=6	=6	=6	=6
2.E-X\	Prin-	2.E-X\	Prin-	1B-	-si	2.g\	Prin-	2.B-\	Prin-
4E-\	-ci-	4E-\	-ci-	.	.	4g\	-ci-	4c\	-ci-
=7	=7	=7	=7	=7	=7	=7	=7	=7	=7
1D	-pes	1D	-pes	1B-	Prin-	1f,	-pes	1d	-pes
=8	=8	=8	=8	=8-	=8	=8	=8	=8	=8
*	*ij	*	*ij	*	*	*	*	*	*ij
2.F\	Prin-	2.F\	Prin-	1A	-ci-	4f\	ter-	2.c\	Prin-
.	.	.	.	.	.	4g\	.	.	.
.	.	.	.	.	.	4a\	.	.	.
4F\	-ci-	4F\	-ci-	.	.	4f\	.	4c\	-ci-
=9	=9	=9	=9	=9-	=9	=9	=9	=9	=9
1C	-pes	1C	-pes	1G,	-pes	(4en\	.	1c	-pes
*	*Xij	*	*Xij	*	*	*	*	*	*Xij
.	.	.	.	.	.	4d\	.	.	.
.	.	.	.	.	.	4e\	.	.	.
.	.	.	.	.	.	4f\)	.	.	.
!	!	!	!	!	!	!LO:LB:g=original	!	!	!
=10	=10	=10	=10	=10	=10	=10	=10	=10	=10
2BB-/	ter-	2BB-/	ter-	1B-	ter-	1d	.	4d\	ter-
.	.	.	.	.	.	.	.	4c\	.
2GG/	.	2GG/	.	.	.	.	.	4B-\	.
.	.	.	.	.	.	.	.	4A\	.
=11	=11	=11	=11	=11-	=11	=11	=11	=11	=11
*	*	*	*	*lig	*	*	*	*	*
1C	-rae	1C	-rae	1G	.	1e	.	4G/	.
.	.	.	.	.	.	.	.	4A/	.
.	.	.	.	.	.	.	.	4B-/	.
.	.	.	.	.	.	.	.	4G/	.
!	!	!	!	!	!	!	!	!LO:LB:g=original	!
=12	=12	=12	=12	=12-	=12	=12-	=12	=12	=12
1FF,	.	1FF,	.	1F	.	1f	-rae	2.A/	-rae
.	.	.	.	.	.	.	.	4G/	.
*	*	*	*	*Xlig	*	*	*	*	*
!	!	!LO:LB:g=original	!	!	!	!	!	!	!
=13	=13	=13	=13	=13-	=13	=13	=13	=13	=13
2.F\	quo-	2.F\	quo-	1F,	-rae	2r	.	2.F/	quo-
.	.	.	.	.	.	[<2f\	quo-	.	.
4E\	.	4E\	.	.	.	.	.	8G/L	.
.	.	.	.	.	.	.	.	8A/J	.
=14	=14	=14	=14	=14	=14	=14	=14	=14	=14
!	!	!	!	!	!	!LO:N:xstem:cue	!	!	!
4D/	.	4D/	.	1F	quo-	4f\]	.	2B-\	-mo-
4C/	.	4C/	.	.	.	4e\	-mo-	.	.
2BB-/	.	2BB-/	.	.	.	2d\	-do	2B-\	-do
=15	=15	=15	=15	=15-	=15	=15	=15	=15	=15
*	*	*	*	*	*	*	*ij	*	*
2.E-Xi\	mo-	2.E-X\	-mo-	1G	-mo-	2.g\	quo-	2.B-\	.
4E-\	.	4E-\	-do	.	.	4g\	-mo-	4c\	.
*custos:BB	*	*	*	*	*	*	*	*	*
!LO:LB:g=original	!	!	!	!	!	!	!	!	!
=16	=16	=16	=16	=16-	=16	=16-	=16	=16	=16
1BB-	-do	1BB-	.	1B-	-do	1f,	-do	2d,\	.
*	*	*	*	*	*	*	*Xij	*	*
.	.	.	.	.	.	.	.	2d\	in
!	!	!	!	!LO:LB:g=original	!	!	!	!	!
=17	=17	=17	=17	=17	=17	=17	=17	=17	=17
1E-X	in	2E-X\	in	1B-,	in	1g	in	2.B-X\	Vi-
.	.	2E-\	Vi-	.	.	.	.	.	.
.	.	.	.	.	.	.	.	4c\	-ta
=18	=18	=18	=18	=18	=18	=18-	=18	=18	=18
2D\	Vi-	2D\	.	1B-	Vi-	2f\	Vi-	2d\	Su-
2D\	-ta	2D\	-ta	.	.	2f\	-ta	[<2B-\	-a
=19	=19	=19	=19	=19-	=19	=19	=19	=19	=19
1E-X	su-	1E-X	su-	1B-	-ta	1e-X	su-	2.B-\]	.
.	.	.	.	.	.	.	.	8A/L	.
.	.	.	.	.	.	.	.	8G/J	.
=20	=20	=20	=20	=20	=20	=20	=20	=20	=20
1BB-	-â	1BB-	-â	1B-	su-	2d,\	-a	1F,	.
.	.	.	.	.	.	2d\	in	.	.
=21	=21	=21	=21	=21-	=21	=21	=21	=21	=21
*	*ij	*	*	*	*	*	*	*	*
1E-X	in	2E-X\	in	1B-,	-a	2e-X\	Vi-	2G/	in
.	.	2E-\	Vi-	.	.	2e-\	-ta	4B-\	V[i]-
.	.	.	.	.	.	.	.	4c\	.
*	*	*	*	*	*	*custos:f	*	*	*
!	!	!	!	!	!	!LO:LB:g=original	!	!	!
=22	=22	=22	=22	=22	=22	=22	=22	=22	=22
2D\	Vi-	2D\	.	1B-	di-	1f	su-	2d\	.
2D\	-ta	2D\	-ta	.	.	.	.	1B-	-ta
=23	=23	=23	=23	=23-	=23	=23	=23	=23-	=23
1E-X	su-	1E-X	su-	1B-	-le-	1g,	-a.	.	.
.	.	.	.	.	.	.	.	2c\	su-
!	!	!	!	!	!	!	!	!LO:LB:g=original	!
=24	=24	=24	=24	=24-	=24	=24	=24	=24	=24
*	*	*	*	*lig	*	*	*	*	*
1BB-	-â	1BB-	-a	1B-	-xe-	1f	di-	1d,	-a
*	*Xij	*	*	*	*	*	*	*	*
!	!	!LO:LB:g=original	!	!	!	!	!	!	!
=25	=25	=25	=25	=25-	=25	=25	=25	=25	=25
1F	di-	1F	di-	1A	.	1f	-le-	1c	di-
*	*	*	*	*Xlig	*	*	*	*	*
=26-	=26	=26	=26	=26-	=26	=26	=26	=26	=26
2E-X\	-le-	2E-X\	-le-	1G	-runt	2g\	-xe-	1c	-le-
2C/	.	2C/	.	.	.	2e-X\	.	.	.
=27	=27	=27	=27	=27	=27	=27	=27	=27	=27
*	*	*	*	*lig	*	*	*	*	*
2BB-/	-xe-	2BB-/	-xe-	1B-	Se:	4d\	-runt	2d\	-xe-
.	.	.	.	.	.	8e-X\L	.	.	.
.	.	.	.	.	.	8f\J	.	.	.
2GG/	.	2GG/	.	.	.	[<2g\	.	2B-\	.
=28	=28	=28	=28	=28-	=28	=28	=28	=28	=28
2C/	-runt	2C/	-runt	1A	.	2g\]	.	2e-X\	-runt
2D/	.	2D/	.	.	.	2f#X\	se:	2d\	.
*	*	*	*	*Xlig	*	*	*	*	*
=29	=29	=29	=29	=29-	=29	=29	=29	=29	=29
1GG	Se:	1GG,	Se;	1G,	.	2g\	.	1d,	Se
.	.	.	.	.	.	2r	.	.	.
=30	=30	=30	=30	=30	=30	=30	=30	=30	=30
*	*	*	*	*lig	*	*	*	*	*
2r	.	2r	.	1c	i-	2g\	i-	2c\	i-
[<2F\	i-	[2F\	i-	.	.	2an\	-ta	2c\	-ta
=31	=31	=31	=31	=31-	=31	=31	=31	=31	=31
2F\]	.	2F\]	.	1d	.	(2f\	et	2B-X\	et
2G\	-ta	2G\	-ta	.	.	2d\)	.	2B-\	in
*	*	*	*	*Xlig	*	*	*	*	*
!LO:LB:g=original	!	!	!	!	!	!	!	!	!
=32	=32	=32	=32	=32-	=32	=32	=32	=32	=32
*	*	*	*	*lig	*	*	*	*	*
2E-X\	et	2E-X\	et	1c	-ta	2e-X\	.	2G/	mor-
2C/	in	2C/	in	.	.	2e-\	in	2G/	-te
!	!	!	!	!	!	!LO:LB:g=original	!	!	!
=33	=33	=33	=33	=33-	=33	=33	=33	=33	=33
4GG/	mor-	4GG/	mor-	1B-	.	4g\	Mor-	4B-\	et
4AA/	.	4AA/	.	.	.	8f\L	.	4c\	in
.	.	.	.	.	.	8e\J	.	.	.
4BB-/	.	4BB-/	.	.	.	4d\	.	[<2d\	mor-
4C/	.	4C/	.	.	.	[<4g\	.	.	.
=34	=34	=34	=34	=34-	=34	=34	=34	=34	=34
1D	.	1D	.	1A	.	2g\]	.	2.d\]	.
.	.	.	.	.	.	2f#X\	.	.	.
.	.	.	.	.	.	.	.	4c\	.
=35	=35	=35	=35	=35-	=35	=35	=35	=35	=35
1GG	-te	1GG	-te	1G	.	1g	-te	1Bn,	-te
*	*	*custos:C	*	*Xlig	*	*	*	*custos:e	*
!	!	!	!	!	!	!	!	!LO:TX:t=P:problem:n zamiast custos	!
!	!	!LO:LB:g=original	!	!LO:LB:g=original	!	!	!	!LO:LB:g=original	!
=36	=36	=36	=36	=36	=36	=36	=36	=36	=36
2r	.	2r	.	1G,	et	1r	.	(4en\	et
.	.	.	.	.	.	.	.	4d\	.
[2C/	non	[2C/	et	.	.	.	.	4c\	.
.	.	.	.	.	.	.	.	4B-X\)	.
=37	=37	=37	=37	=37	=37	=37	=37	=37	=37
2C/]	.	2C/]	.	1A	in	(4a\	et	2A\	.
.	.	.	.	.	.	4g\	.	.	.
[2D/	sunt	[<2D\	in	.	.	4f\	.	2A\	in
.	.	.	.	.	.	4e\)	.	.	.
=38	=38	=38	=38	=38	=38	=38	=38	=38	=38
*	*	*	*	*lig	*	*	*	*	*
2D/]	.	2D\]	.	1B-	Mor-	2d\	.	4d\	mor-
.	.	.	.	.	.	.	.	(4c\	.
[<2E-X\	Se-	[<2E-X\	mor-	.	.	2g\	in	4B-\	.
.	.	.	.	.	.	.	.	4A\)	.
=39	=39	=39	=39	=39-	=39	=39	=39	=39	=39
2E-\]	.	2E-\]	.	1A	.	4g\	mor-	2c\	.
.	.	.	.	.	.	4f\	.	.	.
2C/	-pa-	2C/	-te	.	.	4e-X\	.	2c\	-te
.	.	.	.	.	.	4d\	.	.	.
*	*	*	*	*Xlig	*	*	*	*	*
=40	=40	=40	=40	=40-	=40	=40	=40	=40	=40
*	*	*	*	*lig	*	*	*	*	*
1F	-ra-	1F	i-	1F	.	2f\	.	2c\	et
.	.	.	.	.	.	2f,\	-te	2d\	in
=41	=41	=41	=41	=41-	=41	=41	=41	=41	=41
1C,	-ti	1C	-ta	1G	.	2g\	i-	1en	mor-
.	.	.	.	.	.	2en,\	-ta	.	.
*	*	*	*	*Xlig	*	*custos:d	*	*	*
!	!	!	!	!	!	!LO:LB:g=original	!	!	!
=42	=42	=42	=42	=42-	=42	=42	=42	=42	=42
1D	et	1D	et	1F	-te	(4d\	et	2.d\	.
.	.	.	.	.	.	4e\	.	.	.
.	.	.	.	.	.	2f\)	in	.	.
.	.	.	.	.	.	.	.	4c\	.
=43	=43	=43	=43	=43-	=43	=43	=43	=43	=43
*	*	*	*	*lig	*	*	*	*	*
1GG	in	1GG	in	1D	.	2g\	mor-	2B-X\	.
.	.	.	.	.	.	2g\	-te	2B-\	-te
=44	=44	=44	=44	=44-	=44	=44	=44	=44	=44
2BB-/	mor-	2BB-/	mor-	1C,	.	2r	.	[<1c	non
2GG/	.	2GG/	.	.	.	2g\	non	.	.
*	*	*	*	*Xlig	*	*	*	*	*
=45	=45	=45	=45	=45	=45	=45	=45	=45	=45
1FF	-te	1FF	-te	1F	non	1an	sunt	2c\]	.
.	.	.	.	.	.	.	.	2A/	sunt
*custos:C	*	*custos:C	*	*	*	*	*	*	*
!LO:LB:g=original	!	!LO:LB:g=original	!	!	!	!	!	!	!
=46	=46	=46	=46	=46-	=46	=46	=46	=46	=46
*	*	*	*	*lig	*	*	*	*	*
2r	.	2r	.	1G	.	2g\	se-	2F/	se-
[2C/	non	[2C/	non	.	.	2e\	-pa-	[<2c\	.
*	*	*	*	*	*	*	*	*custos:c	*
!	!	!	!	!	!	!	!	!LO:LB:g=original	!
=47	=47	=47	=47	=47-	=47	=47	=47	=47	=47
!	!	!	!	!	!	!	!	!LO:TX:t=P:problem:brak zakończenia ligatury	!
!	!	!	!	!	!	!	!	!LO:N:xstem:cue	!
2C/]	.	2C/]	.	1A	.	2e\	-ra-	4c\]	.
.	.	.	.	.	.	.	.	4B-\	.
[2D/	sunt	[2D/	sunt	.	.	[<2f\	.	4A\	-pa-
.	.	.	.	.	.	.	.	4G\	.
*	*	*	*	*Xlig	*	*	*	*	*
=48	=48	=48	=48	=48-	=48	=48	=48	=48	=48
2D/]	.	2D/]	.	1B-,	.	2f\]	.	2F/	-ra-
2BB-/	.	2BB-/	.	.	.	2d\	.	2F/	-ti.
=49	=49	=49	=49	=49	=49	=49	=49	=49	=49
*	*	*	*	*lig	*	*	*	*	*
1C	se-	1C	se-	1G	sunt	2g\	.	2r	.
.	.	.	.	.	.	2e\	.	[<2c\	non
=50	=50	=50	=50	=50-	=50	=50	=50	=50	=50
2.F\	-pe-	2.F\	-pa-	1F	.	2.a\	.	2c\]	.
.	.	.	.	.	.	.	.	2A/	sunt
8E\L	.	8E\L	.	.	.	8g\L	.	.	.
8D\J	.	8D\J	.	.	.	8f\J	.	.	.
*	*	*	*	*Xlig	*	*	*	*	*
=51	=51	=51	=51	=51-	=51	=51	=51	=51	=51
2.C/	-ra-	2.C/	-ra-	1G,	.	2e\	.	2.en\	se-
.	.	.	.	.	.	2c/	-ti	.	.
4BB-/	.	4BB-/	.	.	.	.	.	4d\	-pa-
!	!	!	!	!	!	!LO:LB:g=original	!	!	!
=52	=52	=52	=52	=52	=52	=52	=52	=52	=52
2AA/	.	2AA/	.	1A	Se-	1.f	non	4c\	-ra-
.	.	.	.	.	.	.	.	4B-\	.
2D/	.	2D/	.	.	.	.	.	2A/	.
=53	=53	=53	=53	=53-	=53	=53-	=53	=53	=53
2BB-/	.	2BB-/	.	1G	-pa-	.	.	4B-X\	.
.	.	.	.	.	.	.	.	4G\	.
2C/	ti.	2C/	.	.	.	2e\	.	4c\	.
.	.	.	.	.	.	.	.	4B-\	.
*	*	*	*	*custos:F	*	*	*	*	*
!	!	!	!	!LO:LB:g=original	!	!	!	!	!
=54	=54	=54	=54	=54-	=54	=54	=54	=54	=54
1FF,	.	1FF	-ti	1F	-ra-	[<1f	sunt	1A,	-[ti]
=55	=55	=55	=55	=55-	=55	=55	=55	=55	=55
2BB-/	non	2BB-/	non	[0F	-ti	2f\]	.	2B-\	non
2FF/	sunt	2AA/	sunt	.	.	4a\	Se-	2c\	sunt
.	.	.	.	.	.	4g\	-pa-	.	.
!	!	!LO:LB:g=original	!	!	!	!	!	!	!
=56	=56	=56	=56	=56-	=56	=56	=56	=56	=56
2BB-/	se-	2BB-/	se-	.	.	4f\	-ra-	2d\	se-
.	.	.	.	.	.	4g\	.	.	.
2AA/	-pa-	2FF/	-pa-	.	.	4a\	.	2c\	-pe-
.	.	.	.	.	.	4g\	.	.	.
=57	=57	=57	=57	=57	=57	=57	=57	=57	=57
1BB-	-ra-	1BB-	-ra-	0F]	.	1f,	-ti.	1d	-ra-
=58-	=58	=58	=58	=58-	=58	=58	=58	=58	=58
0FF	-ti.	0FF	-ti	.	.	1.f	Al-	[<1c	.
=59	=59	=59	=59	=59	=59	=59-	=59	=59	=59
*	*	*	*	*lig	*	*	*	*	*
.	.	.	.	1F	Al-	.	.	2c\]	.
.	.	.	.	.	.	2a\	.	2A/	.
!	!	!	!	!	!	!	!	!LO:LB:g=original	!
=60	=60	=60	=60	=60-	=60	=60	=60	=60	=60
2r	.	2r	.	1G	.	2g\	-le-	2F/	.
[2C/	al-	[2C/	Al-	.	.	[<2e\	.	[<2c\	.
*	*	*	*	*Xlig	*	*	*	*	*
=61	=61	=61	=61	=61-	=61	=61	=61	=61	=61
*	*	*	*	*lig	*	*	*	*	*
!	!	!	!	!	!	!	!	!LO:N:xstem:cue	!
2C/]	.	2C/]	.	1A	.	2e\]	.	4c\]	.
.	.	.	.	.	.	.	.	4B-/	.
2D/	-le-	[<2D\	-le-	.	.	[<2f\	.	4A/	.
.	.	.	.	.	.	.	.	4G/	.
!LO:LB:g=original	!	!	!	!	!	!	!	!	!
=62	=62	=62	=62	=62-	=62	=62	=62	=62	=62
2D/	.	2D\]	.	1B-	.	2f\]	.	2F/	.
2BB-X/	.	2BB-/	.	.	.	2d\	-lu-	2F/	-ti.
*	*	*	*	*Xlig	*	*	*	*	*
=63	=63	=63	=63	=63-	=63	=63	=63	=63	=63
*	*	*	*	*lig	*	*	*	*	*
1C	-lu-	1C	-lu-	1G	-le-	2g\	-ia	2r	.
.	.	.	.	.	.	2e\	.	[<2c\	Al-
!	!	!	!	!	!	!LO:LB:g=original	!	!	!
=64	=64	=64	=64	=64-	=64	=64	=64	=64	=64
*	*	*	*	*	*	*	*ij	*	*
2.F\	-ia	2.F\	-ia	1F,	.	2.a\	Al-	2c\]	.
.	.	.	.	.	.	.	.	2A/	-le-
8E\L	.	8E\L	.	.	.	8g\L	-le-	.	.
8D\J	.	8D\J	.	.	.	8f\J	.	.	.
*	*	*	*	*Xlig	*	*	*	*	*
=65	=65	=65	=65	=65-	=65	=65	=65	=65	=65
*	*	*	*	*lig	*	*	*	*	*
2.C/	.	2.C/	.	1G	-lu-	2e\	-lu-	2.en\	-lu-
.	.	.	.	.	.	2c,/	-ia	.	.
*	*	*	*	*	*	*	*Xij	*	*
4BB-/	al-	4BB-/	al-	.	.	.	.	4d\	.
=66	=66	=66	=66	=66-	=66	=66	=66	=66	=66
2AA/	.	2AA/	-le-	1Ani	.	1.f	al-	4c\	.
.	.	.	.	.	.	.	.	4B-\	.
2D\	.	2D/	.	.	.	.	.	2A/	-ia
*	*	*custos:BB	*	*Xlig	*	*	*	*	*
!	!	!LO:LB:g=original	!	!	!	!	!	!	!
=67	=67	=67	=67	=67-	=67	=67-	=67	=67	=67
2BB-/	-le-	2BB-/	-lu-	1G	.	.	.	4B-\	.
.	.	.	.	.	.	.	.	4G\	al-
2C/	-lu-	2C/	-ia	.	.	2e\	-le-	4c\	.
.	.	.	.	.	.	.	.	4B-\	.
=68	=68	=68	=68	=68-	=68	=68	=68	=68	=68
4F\	-ia	1FF	.	[0F	-ia	1f	-lu-	1A	.
4E-X\	.	.	.	.	.	.	.	.	.
4D/	.	.	.	.	.	.	.	.	.
4C/	.	.	.	.	.	.	.	.	.
=69	=69	=69	=69	=69-	=69	=69	=69	=69	=69
2BB-/	al-	2BB-/	al-	.	.	2f\	-ia	2B-\	-le-
2F\	.	2F\	.	.	.	4a\	.	2c\	.
.	.	.	.	.	.	4g\	al-	.	.
*	*	*	*	*	*	*	*	*custos:d	*
!	!	!	!	!	!	!	!	!LO:LB:g=original	!
=70	=70	=70	=70	=70	=70	=70	=70	=70	=70
2BB-/	-le-	2BB-/	-le-	0.F_y	.	4f\	.	2d\	.
.	.	.	.	.	.	4g\	-le-	.	.
2AA/	.	2AA/	.	.	.	4a\	.	2c\	.
.	.	.	.	.	.	4g\	.	.	.
=71	=71	=71	=71	=71-	=71	=71	=71	=71	=71
[1BB-	-lu-	0BB-	-lu-	.	.	1f	-lu-	0d	-lu-
=72	=72	=72-	=72	=72-	=72	=72	=72	=72-	=72
!	!	!	!	!	!	!LO:N:vis=0	!	!	!
1BB-]	.	.	.	.	.	0.f;	-ia.	.	.
=73	=73	=73-	=73	=73-	=73	=73-	=73	=73	=73
0FF;	-ia.	0FF;	-ia.	0F]yy	.	.	.	0c;	-ia.
!	!	!LO:TX:b:rj:t=O. ad M. D. G	!	!LO:TX:b:rj:t=O ad M. D G	!	!	!	!LO:TX:b:rj:t=O ad M. D. G	!
==	==	==	==	==	==	==	==	==	==
*-	*-	*-	*-	*-	*-	*-	*-	*-	*-
!!!system-decoration: [s1,s2,s3,s4]s5
!!!RDF**kern: i = editorial accidental
!!!RDF**kern: > = above
!!!RDF**kern: < = below
!!!RDF**kern: N = linked
!!!RDF**kern: | = vertical stroke
!!!RDF**kern: l = terminal long
!!!ENC: Andrzej Gręziak
!!!EED: Katarzyna Serwa
!!!END: 2024-04-12
!!!EEV: 2024-05-22
